modules/hawcons-stroke/icons/soccer-ball.svg

<?xml version="1.0" encoding="UTF-8" standalone="no"?>
<svg width="32px" height="32px" viewBox="0 0 32 32" version="1.1" xmlns="http://www.w3.org/2000/svg" xmlns:xlink="http://www.w3.org/1999/xlink" xmlns:sketch="http://www.bohemiancoding.com/sketch/ns">
    <!-- Generator: Sketch 3.0.3 (7891) - http://www.bohemiancoding.com/sketch -->
    <title>icon 6 soccer ball</title>
    <desc>Created with Sketch.</desc>
    <defs></defs>
    <g id="Page-1" stroke="none" stroke-width="1" fill="none" fill-rule="evenodd" sketch:type="MSPage">
        <g id="icon-6-soccer-ball" sketch:type="MSArtboardGroup" fill="#929292">
            <path d="M8.81549973,14.5511943 L5.01103079,17.0082671 C5.1100006,19.2839188 5.87031523,21.3879864 7.1045629,23.1330581 L11.149279,22.910884 L11.149279,22.910884 L13.613538,20.3590691 L12.361918,16.0565595 L8.81549973,14.5511943 L8.81549973,14.5511943 Z M8.904262,13.5025113 L7.36260017,9.51633207 L7.36260017,9.51633207 C8.66528097,7.8144886 10.4326582,6.48718902 12.475186,5.72397927 L16,8.5930221 L16,8.5930221 L16,12.4069779 L12.6833059,15.1066203 L8.904262,13.5025113 L8.904262,13.5025113 Z M12.1221299,23.343024 L13.2325345,27.5291853 L13.2325345,27.5291853 C14.2682644,27.8355535 15.3649279,28 16.5,28 C17.6350721,28 18.7317356,27.8355535 19.7674655,27.5291853 L19.7674655,27.5291853 L20.8535823,23.4345878 L20.8535823,23.4345878 L18.5025282,21 L14.3847619,21 L12.1221299,23.343024 L12.1221299,23.343024 L12.1221299,23.343024 Z M21.7316974,22.9043461 L25.8954371,23.1330581 C27.1296848,21.3879864 27.8899994,19.2839188 27.9889692,17.0082671 L24.1502985,14.5291055 L20.6502313,16.0147959 L19.3603693,20.448764 L21.7316974,22.9043461 L21.7316974,22.9043461 L21.7316974,22.9043461 Z M24.1126764,13.4587148 L25.6373998,9.51633207 L25.6373998,9.51633207 C24.334719,7.8144886 22.5673418,6.48718902 20.524814,5.72397927 L20.524814,5.72397927 L17,8.5930221 L17,12.4069779 L20.2871352,15.0825607 L24.1126764,13.4587148 L24.1126764,13.4587148 L24.1126764,13.4587148 Z M6.6635626,10.5390225 C5.72050055,12.0918749 5.13479089,13.8857838 5.02055895,15.8066239 L7.96143485,13.9036305 L6.6635626,10.5390225 L6.6635626,10.5390225 L6.6635626,10.5390225 Z M12.0676346,27.1147559 C10.4554085,26.4407579 9.02936601,25.4101621 7.88809475,24.1215561 L11.2228765,23.9413159 L12.0676346,27.1147559 L12.0676346,27.1147559 L12.0676346,27.1147559 Z M20.9323654,27.1147559 C22.5445915,26.4407579 23.970634,25.4101621 25.1119053,24.1215561 L21.7771235,23.9413159 L20.9323654,27.1147559 L20.9323654,27.1147559 L20.9323654,27.1147559 Z M26.3364374,10.5390225 C27.2794994,12.0918749 27.8652091,13.8857838 27.9794411,15.8066239 L25.0385652,13.9036305 L26.3364374,10.5390225 L26.3364374,10.5390225 L26.3364374,10.5390225 Z M19.3766557,5.3627265 C18.4572499,5.12594101 17.4933325,5 16.5,5 C15.5066675,5 14.5427501,5.12594101 13.6233443,5.3627265 L16.5,7.69999981 L19.3766557,5.3627265 L19.3766557,5.3627265 Z M16.5,29 C23.4035597,29 29,23.4035597 29,16.5 C29,9.59644029 23.4035597,4 16.5,4 C9.59644029,4 4,9.59644029 4,16.5 C4,23.4035597 9.59644029,29 16.5,29 L16.5,29 Z M16.5,13.3000002 L19.7000122,15.8999996 L18.3999939,20 L14.6000061,20 L13.2999878,15.8999996 L16.5,13.3000002 L16.5,13.3000002 Z" id="soccer-ball" sketch:type="MSShapeGroup"></path>
        </g>
    </g>
</svg>

<svg width="32" height="32" xmlns="http://www.w3.org/2000/svg"><path d="M8.815 14.551l-3.804 2.457a11.44 11.44 0 0 0 2.094 6.125l4.044-.222 2.465-2.552-1.252-4.302-3.547-1.506zm.09-1.048L7.362 9.516a11.53 11.53 0 0 1 5.112-3.792L16 8.593v3.814l-3.317 2.7-3.779-1.604zm3.217 9.84l1.11 4.186c1.036.307 2.133.471 3.268.471 1.135 0 2.232-.164 3.267-.47l1.087-4.095L18.503 21h-4.118l-2.263 2.343zm9.61-.439l4.163.23a11.44 11.44 0 0 0 2.094-6.126L24.15 14.53l-3.5 1.486-1.29 4.434 2.372 2.455zm2.38-9.445l1.525-3.943a11.53 11.53 0 0 0-5.112-3.792L17 8.593v3.814l3.287 2.676 3.826-1.624zm-17.448-2.92a11.433 11.433 0 0 0-1.643 5.268l2.94-1.903-1.297-3.365zm5.404 16.576a11.528 11.528 0 0 1-4.18-2.993l3.335-.18.845 3.173zm8.864 0a11.528 11.528 0 0 0 4.18-2.993l-3.335-.18-.845 3.173zm5.404-16.576a11.433 11.433 0 0 1 1.643 5.268l-2.94-1.903 1.297-3.365zm-6.96-5.176A11.52 11.52 0 0 0 16.5 5c-.993 0-1.957.126-2.877.363L16.5 7.7l2.877-2.337zM16.5 29C23.404 29 29 23.404 29 16.5S23.404 4 16.5 4 4 9.596 4 16.5 9.596 29 16.5 29zm0-15.7l3.2 2.6-1.3 4.1h-3.8l-1.3-4.1 3.2-2.6z" fill="#929292" fill-rule="evenodd"/></svg>
